X:371
T:Geordie Wark's Welcome To Edinbane #1 
C:Joe Buchanan's Scottish Tome - Page 036.2
I:036 2
R:March
Z:Carl Allison
L:1/8
M:2/2
K:A
E2 | "A" A2 A>B c2 BA | "D"D2 FA F<AFD | "A"E2 A>B cedc  | "E7"c2 B2 BEFG |
"A" A2 A>B c2 BA | "D"D2 FA F<AFD | "A"E2 A>B c<edc | "E7"dE GB A2  :|
cd | "A" e2 dc "E7"d>B GE |"A" A<cBA "D"((3FGA) "E7"D>F | "A"A2 A>c cedc | "B7"c2 B2 "E7"B2 cd |
"A" e2 dc "E7"d>B GE |"A" A<cBA "D"((3FGA) "E7"D>F | "A"A>edc "E7"dB GA |"E7" B2 A2 "A"A2 cd |
"A" e2 dc "E7"d>B GE |"A" A<cBA "D"((3FGA) "E7"D>F |"A" A2 A>B cedc |"B7" c2 B2 B2 "E7"E2 |
"A" A2 A>B c2 BA |"D" D2 FA F<AFD |"A" E2 A>B c<edc |"E7" dE GB A2|]

